X: 379
T: Stack the Rags
R: single jig
%S: s:3 b:20
B: Francis O'Neill: "The Dance Music of Ireland" (1907) #379
Z: Frank Nordberg - http://www.musicaviva.com
F: http://www.musicaviva.com/abc/tunes/ireland/oneill-1001/0379/oneill-1001-0379-1.abc
%m: Tn2 = (3n/o/n/ m/n/
M: 6/8
L: 1/8
K: Gdor
%%continueall
d \
"^A"|: cAG TG2^F | (D2G) G3 |[1,3 cAG G2G | f3 e2d :|[2,4 F2G A2B | c3 d3 H :|
"^B"|: G2g g3 | ^faf g3 | d2g g2e | f3 e2d :| aba a2g | f3 d2 |]
"^C"[| c | d2g g3 | ^faf g3 | d2g g2e | f3 f2g || agf gfe | edc f2d | cAG G2G | f3 e2 |]
